usr/share/icons/biglinux-icons-material-dark/22/actions/vcs-branch.svg

<svg viewBox="0 0 22 22" xmlns="http://www.w3.org/2000/svg">
    <style type="text/css" id="current-color-scheme">
        .ColorScheme-Text {
            color:#dedede;
        }
        .ColorScheme-Highlight {
            color:#3daee9;
        }
    </style>
    <g stroke-linecap="square">
        <g class="ColorScheme-Text" fill="currentColor">
            <path d="m5.5 3a2.5 2.5 0 0 0 -2.5 2.5 2.5 2.5 0 0 0 2.5 2.5 2.5 2.5 0 0 0 2.5-2.5 2.5 2.5 0 0 0 -2.5-2.5zm0 1a1.5 1.5 0 0 1 1.5 1.5 1.5 1.5 0 0 1 -1.5 1.5 1.5 1.5 0 0 1 -1.5-1.5 1.5 1.5 0 0 1 1.5-1.5z"/>
            <path d="m5.5 14a2.5 2.5 0 0 0 -2.5 2.5 2.5 2.5 0 0 0 2.5 2.5 2.5 2.5 0 0 0 2.5-2.5 2.5 2.5 0 0 0 -2.5-2.5zm0 1a1.5 1.5 0 0 1 1.5 1.5 1.5 1.5 0 0 1 -1.5 1.5 1.5 1.5 0 0 1 -1.5-1.5 1.5 1.5 0 0 1 1.5-1.5z"/>
            <path d="m5 7h1v8h-1z"/>
            <path d="m15 7v2a1 1 0 0 1 -1 1h-7a2 2 0 0 0 -.0488281 0 2 2 0 0 0 -1.9511719 2h1a1 1 0 0 1 1-1h7a2 2 0 0 0 .048828 0 2 2 0 0 0 1.951172-2v-2z"/>
        </g>
        <path d="m15.5 3a2.5 2.5 0 0 0 -2.5 2.5 2.5 2.5 0 0 0 2.5 2.5 2.5 2.5 0 0 0 2.5-2.5 2.5 2.5 0 0 0 -2.5-2.5zm0 1a1.5 1.5 0 0 1 1.5 1.5 1.5 1.5 0 0 1 -1.5 1.5 1.5 1.5 0 0 1 -1.5-1.5 1.5 1.5 0 0 1 1.5-1.5z" class="ColorScheme-Highlight" fill="currentColor"/>
    </g>
</svg>

<svg xmlns="http://www.w3.org/2000/svg" viewBox="0 0 22 22">
<style id="current-color-scheme" type="text/css">
.ColorScheme-Text{color:#dedede}.ColorScheme-Highlight{color:#3daee9}
</style>
<g stroke-linecap="square">
<g fill="currentColor" class="ColorScheme-Text">
<path d="M5.5 3A2.5 2.5 0 0 0 3 5.5 2.5 2.5 0 0 0 5.5 8 2.5 2.5 0 0 0 8 5.5 2.5 2.5 0 0 0 5.5 3m0 1A1.5 1.5 0 0 1 7 5.5 1.5 1.5 0 0 1 5.5 7 1.5 1.5 0 0 1 4 5.5 1.5 1.5 0 0 1 5.5 4m0 10A2.5 2.5 0 0 0 3 16.5 2.5 2.5 0 0 0 5.5 19 2.5 2.5 0 0 0 8 16.5 2.5 2.5 0 0 0 5.5 14m0 1A1.5 1.5 0 0 1 7 16.5 1.5 1.5 0 0 1 5.5 18 1.5 1.5 0 0 1 4 16.5 1.5 1.5 0 0 1 5.5 15"/>
<path d="M5 7h1v8H5z"/>
<path d="M15 7v2a1 1 0 0 1-1 1H6.951A2 2 0 0 0 5 12h1a1 1 0 0 1 1-1h7.049A2 2 0 0 0 16 9V7z"/>
</g>
<path fill="currentColor" d="M15.5 3A2.5 2.5 0 0 0 13 5.5 2.5 2.5 0 0 0 15.5 8 2.5 2.5 0 0 0 18 5.5 2.5 2.5 0 0 0 15.5 3m0 1A1.5 1.5 0 0 1 17 5.5 1.5 1.5 0 0 1 15.5 7 1.5 1.5 0 0 1 14 5.5 1.5 1.5 0 0 1 15.5 4" class="ColorScheme-Highlight"/>
</g>
</svg>
